X: 10613
T: Dowd's Favourite
R: reel
M: 4/4
K: Aminor
|:G|DAAB cBcG|EG ~G2 DGAG|EGAB cABc|dBgd BAAG|
DAAB cBcG|EG ~G2 DGAG|EGAB cABc|dBgd BA A:|
|:B|c2 ec Gcec|Gcec dBGB|c2 ec Gcec|dBGB cAAB|
c2 ec Gcec|Gcec dBGB|AcBd ceae|1 gedB cA A:|2 gedB cA A2:|
|:ae ~e2 aeba|gdBd gabg|ae ~e2 aeba|gedB cA A2|
ae ~e2 aeba|gdBd gabg|abga eage|dBgd BA A2:|

